X:767
L:1/16
M:2/4
K:G
 Bc |:"G" d2BG B2Bc |"D7" d2cA c2dg | fae2 efc2 |"G" edBe d2Bd | d2BG B2Bc |"D7" d2cA c2dg | 
 f2>e2 dcBA |1"G" G6 Bc :|2"G" G6 GA |:"G" B2>A2 BABe |"D7" Pd2F2 F2AB | cBAB cdef |"G" gfed B2GA | 
 B2>A2 BABe |"D7" d2F2 F2AB | cBAB cdef |"G" g2dB G4 ::[K:C]"G7" Pg2d2 Pg2d2 |"C" e2cG EGce | 
"G7" d2BG ^FGBd |"C" e2cG EGce |"G7" Pg2d2 Pg2d2 |"C" e2cG EGce |"G7" d2ag fdBd |1"C" c2e2c2 z2 :|2 
"C" c2e2 c2Bc |:[K:G]"G" d2d2 dgfe | e2d^c d2>e2 |"D7" d2cB c2>d2 |"G" c2BA B2Bc | d2d2 dgfe | 
 e2d^c d2e2 |"G" B2AB"D7" c2>F2 |1"G" G2B2 G2Gc :|2"G" G2B2 G2"_d.C." z2 |]

